taiwan-dashboard-2021/static/images/icons/toggle-icon.svg

<svg fill="none" height="8" viewBox="0 0 15 8" width="15" xmlns="http://www.w3.org/2000/svg"><path d="m7.5 7.78906c.16406 0 .3125-.07031.42969-.19531l5.92191-6.23437c.1015-.10157.164-.22657.164-.382818 0-.304687-.2344-.539062-.539-.539062-.1407 0-.2891.054688-.3907.15625l-5.57809 5.875-5.59375-5.875c-.09375-.101562-.23437-.15625-.38281-.15625-.30469 0-.539062.234375-.539062.539062 0 .156248.062502.281248.164062.390628l5.92187 6.23437c.125.11719.25782.1875.42188.1875z" fill="#000928"/></svg>

<svg width="15" height="8" viewBox="0 0 15 8" fill="none" xmlns="http://www.w3.org/2000/svg">
<path d="M7.5 7.78906C7.66406 7.78906 7.8125 7.71875 7.92969 7.59375L13.8516 1.35938C13.9531 1.25781 14.0156 1.13281 14.0156 0.976562C14.0156 0.671875 13.7812 0.4375 13.4766 0.4375C13.3359 0.4375 13.1875 0.492188 13.0859 0.59375L7.50781 6.46875L1.91406 0.59375C1.82031 0.492188 1.67969 0.4375 1.53125 0.4375C1.22656 0.4375 0.992188 0.671875 0.992188 0.976562C0.992188 1.13281 1.05469 1.25781 1.15625 1.36719L7.07812 7.60156C7.20312 7.71875 7.33594 7.78906 7.5 7.78906Z" fill="#000928"/>
</svg>
